X: 3
T: The Cook In The Kitchen
R: jig
M: 6/8
L: 1/8
K: Gmix
DGG GAG | FDE {G}FDC | DGG ABc | dgg ^fdc |{c}BAB G^FG | FDE F2 d | {d} cAG ^FGA | BGG G2 :|{D}G2 g def | {d}cAF FGA | {D}G2 g def | ~edc de^f |{a}g^fg BAB | ~A2 G FGA | {c}BAB {d}cA^F | GAG G2 :|~ | {c} BAB {e}cBc | def gdc | ~~ | efc de^f | ~a3 B2 G | ~


Tune 808	Setting 13959

